X: 7514
T: Cobbler's, The
R: reel
M: 4/4
K: Dmajor
|:(3BAG|DADE FE D2|Adcd BAFA|BE E2 DE E2|GFED BEGB|
DADE FE D2|Adcd BAFA|B2 e2 dBAG|FAFE D2:|
|:(3cde|fded cA A2|fdef geag|fded cABc|BFAF D2 (3cde|
fded cA A2|fdef g2 fg|af (3gfe fdef|cABc d2:|

